!!!COM:	Bach, Johann Sebastian
!!!CDT:	1685/02/21/-1750/07/28/
!!!OTL@@DE:	O Lamm Gottes, unschuldig
!!!SCT:	BWV 401
!!!PC#:	165
!!!AGN:	chorale
**kern	**kern	**kern	**kern
*ICvox	*ICvox	*ICvox	*ICvox
*Ibass	*Itenor	*Ialto	*Isoprn
*I"Bass	*I"Tenor	*I"Alto	*I"Soprano
*>[A,A,B]	*>[A,A,B]	*>[A,A,B]	*>[A,A,B]
*>norep[A,B]	*>norep[A,B]	*>norep[A,B]	*>norep[A,B]
*>A	*>A	*>A	*>A
*	*oclefC4	*oclefC3	*oclefC1
*clefF4	*clefGv2	*clefG2	*clefG2
*k[b-]	*k[b-]	*k[b-]	*k[b-]
*F:	*F:	*F:	*F:
*M4/4	*M4/4	*M4/4	*M4/4
*met(c)	*met(c)	*met(c)	*met(c)
*MM100	*MM100	*MM100	*MM100
8FFL	8AL	4c	4f
8GGJ	8B-J	.	.
=1	=1	=1	=1
4AA	[4c	16cLL	4f
.	.	16dJ	.
.	.	8e-J	.
2BB-	8cL]	8e-L	4f
.	16B-L	8dJ	.
.	16AJJ	.	.
.	4G	8eL	4cc
.	.	8cJ	.
8AAL	[4c	8fL	4cc
8GGJ	.	8eJ	.
=2	=2	=2	=2
4FF	4c]	4a	2dd
4GG	4B	8gL	.
.	.	8fJ	.
4C;	4G;	4e;	4cc;
4AA	4A	[4e	4cc
=3	=3	=3	=3
4D	4A	8eL]	4f
.	.	[8dJ	.
4E	4G	8dL]	4g
.	.	8cJ	.
8FL	[4F	8cL	4a
8E	.	16dL	.
.	.	16eJJ	.
8D	8FL]	[4f	4b-
8BB-J	8dJ	.	.
=4	=4	=4	=4
4C	4c	8fL]	4a
.	.	16eL	.
.	.	16dJJ	.
4CC	8.cL	4e	8gL
.	.	.	8fJ
.	16B-Jk	.	.
4F;	4A;	4c;	4f;
=:|!	=:|!	=:|!	=:|!
*>B	*>B	*>B	*>B
[4F	4c	4f	4a
=5	=5	=5	=5
8FL]	4c	4f	4a
8E	.	.	.
8D	4d	4f	4a
8CJ	.	.	.
4BB	4d	4f	4g
4C#	4A	4e	4a
=6	=6	=6	=6
8DL	8AL	8dL	8fL
8E	8GJ	[8cJ	8eJ
8F	8AL	8cL]	4d
8GJ	16GL	8BJ	.
.	16FJJ	.	.
4C;	4E;	4G;	4c;
4AA	4F	4e-	4cc
=7	=7	=7	=7
4BB-	8FL	8dL	4dd
.	8GJ	8enXJ	.
[4F	8AL	8fL	4cc
.	8B-J	16gL	.
.	.	16aJJ	.
8FL]	[4c	4g	4cc
8EJ	.	.	.
[4F	8cL]	4f	8aL
.	8dJ	.	8b-XJ
=8	=8	=8	=8
8FL]	4e-	[4a	4cc
8F#J	.	.	.
8GL	4d	8aL]	4b-
8GGJ	.	4gJ	.
4D;	4d;	.	4a;
.	.	8f#;	.
8BB-L	8dL	4g	4dd
8BBJ	8fJ	.	.
=9	=9	=9	=9
4C	[4e	4g	8ccL
.	.	.	8b-J
4D	8eL]	4fnX	4a
.	[8dJ	.	.
4E	8dL]	[4g	4g
.	8cJ	.	.
4FnX	4c	8gL]	4a
.	.	16fL	.
.	.	16eJJ	.
=10	=10	=10	=10
8AAL	8cL	4f	4cc
16BB-L	8A	.	.
16CJJ	.	.	.
8DL	8F	2f	4a
8CJ	8AJ	.	.
4BB-	4d	.	2g
4C	8cL	4e	.
.	8B-J	.	.
=11	=11	=11	=11
2.FF;	2.A;	2.c;	2.f;
==	==	==	==
*-	*-	*-	*-
!!!YOR1: 371 vierstimmige Choralges&auml;nge von Johann Sebastian Bach, 
!!!YOR2: 4th ed. by Alfred D&ouml;rffel (Leipzig: Breitkopf und H&auml;rtel, 
!!!YOR2: c.1875). 178 pp. Plate "V.A.10".  reprint: J.S. Bach, 371 Four-Part 
!!!YOR4: Chorales (New York: Associated Music Publishers, Inc., c.1940).
!!!SMS: B&H, 4th ed, Alfred D&ouml;rffel, c.1875, plate V.A.10
!!!EED:  Craig Stuart Sapp
!!!EEV:  2009/05/22
